X:611
M:C
L:1/8
K:B_
d|f<f f>b d2 B>d|e>c e/d/c/B/ A<c c>d|f<f f>b d2 B>d|e>c e/d/c/B/ F<B B>d|
f<f f>b d2 B>d|e>c e/d/c/B/ A<c c>e|B>df>b g2 e>g|f>dc>f d<B~B||d/e/|
f<Bb>B f2 d>g|f>dd>B A<c cd/e/|1 f<Bb>B a<B g>B|F<B A>c d<B~B:|2

